tetrification/src/assets/images/pageNotFound/piece_orange.svg

<svg width="251" height="375" viewBox="0 0 251 375" fill="none" xmlns="http://www.w3.org/2000/svg">
<path d="M124.616 116.69L116.92 124.336L9.22932 124.336L1.53341 116.69L1.53341 8.89821L9.22932 1.25293L116.92 1.25293L124.616 8.89821V116.69Z" fill="#FFA360" stroke="#DF654D" stroke-width="2"/>
<path d="M124.468 241.459L116.772 249.104H9.08088L1.38497 241.459L1.38497 133.667L9.08088 126.021H116.772L124.468 133.667V241.459Z" fill="#FFA360" stroke="#DF654D" stroke-width="2"/>
<path d="M124.468 366.228L116.772 373.873H9.08088L1.38497 366.228L1.38497 258.435L9.08088 250.79H116.772L124.468 258.435V366.228Z" fill="#FFA360" stroke="#DF654D" stroke-width="2"/>
<path d="M249.236 116.69L241.54 124.336L133.849 124.336L126.154 116.69L126.154 8.89821L133.849 1.25293L241.54 1.25293L249.236 8.89821V116.69Z" fill="#FFA360" stroke="#DF654D" stroke-width="2"/>
</svg>

<svg xmlns="http://www.w3.org/2000/svg" width="251" height="375" fill="none"><path fill="#FFA360" stroke="#DF654D" stroke-width="2" d="m124.616 116.69-7.696 7.646H9.23l-7.697-7.646V8.898L9.23 1.253H116.92l7.696 7.645V116.69ZM124.468 241.459l-7.696 7.645H9.081l-7.696-7.645V133.667l7.696-7.646h107.691l7.696 7.646v107.792ZM124.468 366.228l-7.696 7.645H9.081l-7.696-7.645V258.435l7.696-7.645h107.691l7.696 7.645v107.793ZM249.236 116.69l-7.696 7.646H133.849l-7.695-7.646V8.898l7.695-7.645H241.54l7.696 7.645V116.69Z"/></svg>
